remix/Device/dashboard-3-line.svg

<svg viewBox="0 0 24 24" fill="currentColor" xmlns="http://www.w3.org/2000/svg"><path d="M12 2C17.5228 2 22 6.47715 22 12C22 17.5228 17.5228 22 12 22C6.47715 22 2 17.5228 2 12C2 6.47715 6.47715 2 12 2ZM12 4C7.58172 4 4 7.58172 4 12C4 16.4183 7.58172 20 12 20C16.4183 20 20 16.4183 20 12C20 7.58172 16.4183 4 12 4ZM15.8329 7.33748C16.0697 7.17128 16.3916 7.19926 16.5962 7.40381C16.8002 7.60784 16.8267 7.92955 16.6587 8.16418C14.479 11.2095 13.2796 12.8417 13.0607 13.0607C12.4749 13.6464 11.5251 13.6464 10.9393 13.0607C10.3536 12.4749 10.3536 11.5251 10.9393 10.9393C11.3126 10.5661 12.9438 9.36549 15.8329 7.33748ZM17.5 11C18.0523 11 18.5 11.4477 18.5 12C18.5 12.5523 18.0523 13 17.5 13C16.9477 13 16.5 12.5523 16.5 12C16.5 11.4477 16.9477 11 17.5 11ZM6.5 11C7.05228 11 7.5 11.4477 7.5 12C7.5 12.5523 7.05228 13 6.5 13C5.94772 13 5.5 12.5523 5.5 12C5.5 11.4477 5.94772 11 6.5 11ZM8.81802 7.40381C9.20854 7.79433 9.20854 8.4275 8.81802 8.81802C8.4275 9.20854 7.79433 9.20854 7.40381 8.81802C7.01328 8.4275 7.01328 7.79433 7.40381 7.40381C7.79433 7.01328 8.4275 7.01328 8.81802 7.40381ZM12 5.5C12.5523 5.5 13 5.94772 13 6.5C13 7.05228 12.5523 7.5 12 7.5C11.4477 7.5 11 7.05228 11 6.5C11 5.94772 11.4477 5.5 12 5.5Z"/></svg>

<svg viewBox="0 0 24 24" xmlns="http://www.w3.org/2000/svg"><path fill="none" d="M0 0h24v24H0Z"/><path d="M12 2c5.523 0 10 4.477 10 10s-4.477 10-10 10C6.477 22 2 17.523 2 12 2 6.477 6.477 2 12 2Zm0 2c-4.418 0-8 3.582-8 8 0 4.41 3.582 8 8 8 4.41 0 8-3.59 8-8 0-4.42-3.59-8-8-8Zm3.833 3.33c.23-.17.55-.14.76.06 .2.2.23.52.06.76 -2.18 3.04-3.38 4.67-3.6 4.897 -.59.58-1.54.58-2.122 0 -.59-.59-.59-1.54 0-2.122 .37-.38 2-1.58 4.89-3.61Zm1.66 3.66c.55 0 1 .44 1 1 0 .55-.45 1-1 1 -.56 0-1-.45-1-1 0-.56.44-1 1-1Zm-11 0c.55 0 1 .44 1 1 0 .55-.45 1-1 1 -.56 0-1-.45-1-1 0-.56.44-1 1-1ZM8.8 7.394c.39.39.39 1.02 0 1.41 -.39.39-1.024.39-1.42 0 -.39-.39-.39-1.024 0-1.42 .39-.39 1.02-.39 1.41 0Zm3.18-1.904c.55 0 1 .44 1 1 0 .55-.45 1-1 1 -.56 0-1-.45-1-1 0-.56.44-1 1-1Z"/></svg>
